build/img/midea.svg

<svg width="104" height="40" viewBox="0 0 104 40" fill="none" xmlns="http://www.w3.org/2000/svg">
<path d="M50.3111 19.6082V33.3025H53.5972V19.6082H50.3111ZM44.396 14.3884H41.016C40.6404 14.3884 40.703 14.7262 40.703 14.7262C40.7656 15.156 40.8595 15.8622 40.8595 17.3361C40.8595 20.5907 40.4526 25.2579 36.8222 29.71L36.5719 30.0171C36.5719 30.0171 34.3811 15.0332 34.3498 14.7569C34.3498 14.7569 34.3498 14.4191 34.0368 14.4191H30.6255C30.3126 14.4191 30.3126 14.7569 30.3126 14.7569C30.2187 16.4763 29.2485 30.9075 18.5138 33.2411C20.7984 33.4867 23.5525 32.7805 25.9623 31.3374C28.9355 29.5258 30.9385 26.8545 31.5957 23.784C31.5957 23.784 32.9102 31.8286 33.0667 33.6709V33.7937L32.9728 33.8551C29.9683 35.4211 26.557 36.2808 23.1456 36.2808C14.6956 36.2808 7.2157 31.3681 3.92957 23.8761C5.86995 32.6884 13.8819 39.1056 23.2395 39.1056C34.162 39.1056 40.6717 30.1399 41.7984 23.7533C41.7984 23.7533 43.2693 33.0568 43.3006 33.3639H47.776C47.7134 32.9647 44.7403 15.0946 44.709 14.8183C44.709 14.8183 44.709 14.4805 44.396 14.4805V14.3884ZM6.55848 22.2181C6.55848 12.3926 15.0085 4.40941 25.3677 4.40941C31.7835 4.40941 37.7611 7.57199 41.2351 12.6997C38.7 5.69901 31.627 0.909088 23.709 0.909088C13.475 0.909088 5.15013 8.73877 5.15013 18.3493C5.15013 20.9899 5.80736 23.5691 7.02792 25.9334C6.74625 24.7359 6.55848 23.477 6.55848 22.2488V22.2181ZM84.9876 21.5733C83.7984 20.2223 82.1396 19.5161 80.1367 19.5161C78.1024 19.5161 76.3811 20.1609 75.004 21.4505C73.6583 22.7094 72.9697 24.3981 72.9697 26.486C72.9697 28.5432 73.627 30.2013 74.9414 31.4295C76.2559 32.6577 78.165 33.2718 80.5435 33.2718C85.1754 33.2718 86.1769 30.1399 86.5525 29.1266L85.3632 28.7582C84.2991 30.6619 81.9206 30.7847 80.5122 30.6926C79.5107 30.6312 78.6031 30.2934 77.8833 29.8021C77.1635 29.2802 76.6627 28.5432 76.4437 27.4072L76.3811 26.9773H86.7715C86.7402 24.7359 86.1456 22.9243 84.9876 21.604V21.5733ZM76.6314 25.0429C76.475 25.0429 76.475 24.8894 76.475 24.828C76.6002 24.0297 76.9131 23.4156 77.4765 22.8629C78.1024 22.2181 79.0726 21.8496 80.1054 21.8496C81.0443 21.8496 81.7954 22.126 82.4526 22.648C82.9846 23.1085 83.3602 23.7533 83.5793 24.6438C83.6106 24.7359 83.6732 25.0122 83.4228 25.0122H76.6314V25.0429ZM95.4407 19.4547C91.4973 19.4547 90.089 21.8189 89.6508 22.9243C89.6508 22.955 89.4943 23.3235 89.4943 23.3235L90.8088 23.7533C90.8088 23.7533 91.6538 21.3584 95.0025 21.5119C98.3825 21.6347 97.9757 24.3674 97.9757 24.7973C96.0979 24.2446 93.4377 24.306 91.6851 25.0736C89.4943 26.0562 89.1501 28.0213 89.244 29.4644C89.3378 31.6137 91.2782 33.1182 93.782 33.2411C96.0353 33.3639 97.0368 32.8726 97.9757 31.9822L97.9444 33.2411H100.918V23.8147C100.98 22.1874 99.8222 19.424 95.4407 19.424V19.4547ZM97.9444 30.0785C97.9444 30.2934 97.8818 30.4469 97.694 30.539C97.1307 30.8154 95.9414 31.1838 94.4705 31.0917C92.937 30.9689 92.3423 29.8942 92.2484 29.4337C92.2171 29.2495 91.8729 27.2537 93.8446 26.6396C95.1277 26.2404 96.7551 26.486 97.6314 26.7317C97.8818 26.7931 97.9444 26.9466 97.9444 27.2537V30.1092V30.0785ZM53.3781 14.3884H50.6553C50.2485 14.3884 50.3111 14.7876 50.3111 14.7876V17.6738H53.6598V14.7569C53.6598 14.7569 53.6911 14.4191 53.3468 14.4191L53.3781 14.3884ZM70.0905 14.3884H67.3051C67.0234 14.3884 67.0234 14.6955 67.0234 14.6955V20.3144L66.6166 20.0995C66.1784 19.8845 65.7402 19.731 65.2708 19.6389C64.8014 19.5468 64.238 19.5161 63.6121 19.5161C61.4213 19.5161 59.6374 20.1302 58.323 21.3891C57.0398 22.6173 56.3513 24.3981 56.3513 26.5782C56.3513 28.5125 56.9146 30.1399 58.01 31.4295C59.1054 32.6884 60.7015 33.3332 62.7984 33.3332C65.8028 33.3332 66.9921 31.5523 66.9921 31.5523V33.2718H70.3721V30.0478V14.7262C70.3721 14.7262 70.3721 14.3884 70.0905 14.3884ZM66.8356 29.5565C66.5227 29.8328 66.1158 30.0478 65.6151 30.232C65.083 30.4469 64.4571 30.539 63.7686 30.539C62.6419 30.539 61.7343 30.1706 61.0771 29.4337C60.4198 28.6968 60.1069 27.6221 60.1069 26.179C60.1069 24.7666 60.4198 23.7226 61.0145 23.0778C61.6404 22.4023 62.5793 22.0646 63.8312 22.0646C64.4884 22.0646 65.1143 22.1567 65.6777 22.3716C66.1784 22.5558 66.554 22.7401 66.8356 22.9857C66.9295 23.0778 67.0234 23.2313 67.0234 23.4463V29.0652C67.0234 29.2802 66.9295 29.4337 66.8356 29.5258V29.5565Z" fill="white"/>
</svg>

<svg width="104" height="40" viewBox="0 0 104 40" fill="none" xmlns="http://www.w3.org/2000/svg"><path d="M50.311 19.608v13.695h3.286V19.608h-3.286zm-5.915-5.22h-3.38c-.376 0-.313.338-.313.338.063.43.156 1.136.156 2.61 0 3.255-.406 7.922-4.037 12.374l-.25.307s-2.19-14.984-2.222-15.26c0 0 0-.338-.313-.338h-3.412c-.312 0-.312.338-.312.338-.094 1.72-1.064 16.15-11.8 18.484 2.285.246 5.04-.46 7.45-1.904 2.973-1.811 4.976-4.482 5.633-7.553 0 0 1.314 8.045 1.47 9.887v.123l-.093.061c-3.005 1.566-6.416 2.426-9.827 2.426-8.45 0-15.93-4.913-19.216-12.405 1.94 8.812 9.952 15.23 19.31 15.23 10.922 0 17.432-8.966 18.558-15.353 0 0 1.471 9.304 1.503 9.61h4.475c-.063-.398-3.036-18.268-3.067-18.545 0 0 0-.338-.313-.338v-.092zm-37.838 7.83c0-9.825 8.45-17.809 18.81-17.809 6.416 0 12.393 3.163 15.867 8.29C38.7 5.7 31.627.91 23.71.91 13.475.91 5.15 8.74 5.15 18.35c0 2.64.657 5.22 1.878 7.584-.282-1.197-.47-2.456-.47-3.684v-.03zm78.43-.645c-1.19-1.35-2.848-2.057-4.851-2.057-2.035 0-3.756.645-5.133 1.935-1.346 1.258-2.034 2.947-2.034 5.035 0 2.057.657 3.715 1.971 4.944 1.315 1.228 3.224 1.842 5.602 1.842 4.632 0 5.634-3.132 6.01-4.145l-1.19-.369c-1.064 1.904-3.442 2.027-4.85 1.935a5.249 5.249 0 01-2.63-.89c-.72-.523-1.22-1.26-1.44-2.396l-.062-.43h10.39c-.03-2.241-.625-4.053-1.783-5.373v-.03zm-8.357 3.47c-.156 0-.156-.154-.156-.215.125-.798.438-1.412 1.002-1.965.625-.645 1.596-1.013 2.628-1.013.94 0 1.69.276 2.348.798.532.46.907 1.105 1.126 1.996.032.092.094.368-.156.368H76.63v.03zm18.81-5.588c-3.944 0-5.352 2.364-5.79 3.47 0 .03-.157.398-.157.398l1.315.43s.845-2.395 4.194-2.241c3.38.123 2.973 2.855 2.973 3.285-1.878-.552-4.538-.491-6.29.277-2.192.982-2.536 2.947-2.442 4.39.094 2.15 2.034 3.654 4.538 3.777 2.253.123 3.255-.368 4.194-1.259l-.032 1.26h2.974v-9.427c.062-1.628-1.096-4.391-5.477-4.391v.03zm2.503 10.623c0 .215-.062.369-.25.461-.563.276-1.753.645-3.224.553-1.533-.123-2.128-1.198-2.222-1.658-.03-.184-.375-2.18 1.597-2.794 1.283-.4 2.91-.154 3.786.092.25.061.313.215.313.522v2.855-.03zm-44.566-15.69h-2.723c-.407 0-.344.4-.344.4v2.886h3.349v-2.917s.031-.338-.313-.338l.031-.03zm16.713 0h-2.786c-.282 0-.282.307-.282.307v5.62l-.406-.216a5.36 5.36 0 00-1.346-.46c-.47-.092-1.033-.123-1.659-.123-2.19 0-3.975.614-5.289 1.873-1.283 1.228-1.972 3.01-1.972 5.19 0 1.933.564 3.56 1.659 4.85 1.095 1.26 2.692 1.904 4.788 1.904 3.005 0 4.194-1.78 4.194-1.78v1.719h3.38V14.726s0-.338-.281-.338zm-3.255 15.168c-.313.277-.72.492-1.22.676-.533.215-1.159.307-1.847.307-1.127 0-2.035-.368-2.692-1.105s-.97-1.812-.97-3.255c0-1.412.313-2.456.907-3.101.626-.676 1.565-1.013 2.817-1.013.657 0 1.283.092 1.847.307.5.184.876.368 1.158.614a.636.636 0 01.187.46v5.62a.636.636 0 01-.187.46v.03z" fill="#fff"/></svg>
